X:1
T:Standin In The Need of Prayer
T:We are almost home
T:Copyright 1881 by The Riverside Press
T:Rodeheaver's Plantation Melodies
T:Rodeheaver's Plantation Melodies
Z:Rodeheaver's Plantation Melodies
%%score [ 1 2 3 4 ]
L:1/8
Q:1/4=70
M:4/4
K:Eb
V:1 treble nm="Soprano" snm="S."
V:2 treble nm="Alto" snm="A."
V:3 bass nm="Tenor" snm="T."
V:4 bass nm="Bass" snm="B."
V:1
 G/A/ | B2 e2 B3 G/A/ | B2 G2 F3 G/A/ | B2 e2 B3 A | GGFF E3 :: B2 | G/G/G GB B/A/ A3 | %7
 A/A/A Ac c/B/ B3 | G/G/G GB B/A/ A2 G | FAGF E3 :| %10
V:2
 E/F/ | G2 G2 G3 E/F/ | G2 E2 D3 E/F/ | G2 G2 G3 F | EEDD E3 :: G2 | E/E/E EG G/F/ F3 | %7
w: We are|al- most home. We are|al- most home. We are|al- most home to|ring those charm- ing bells.|~Oh|come a- long bro- thers, come a- long,|
w: |||||Oh|come a- long sis- ters, come a- long,|
 F/F/F FA A/G/ G3 | E/E/E EG G/F/ F2 E | DFED E3 :| %10
w: come a- long bro- thers, come a- long,|come a- long bro- thers, come a- long. To|ring those char- ming bells.|
w: come a- long sis- ters, come a- long,|come a- long sis- ters, come a- long. *||
V:3
 B,/B,/ | E2 E2 E3 E/E/ | E2 B,2 B,3 B,/B,/ | E2 E2 E3 C | B,B,A,A, G,3 :: B,2 | %6
 B,/B,/B, B,B, B,/B,/ B,3 | B,/B,/B, B,D E/E/ E3 | B,/B,/B, B,B, B,/B,/ B,2 B, | B,B,B,A, G,3 :| %10
V:4
 E,/E,/ | E,2 E,2 E,3 E,/E,/ | E,2 E,2 B,,3 E,/E,/ | E,2 E,2 E,3 A,, | B,,B,,B,,B,, E,3 :: E,2 | %6
 E,/E,/E, E,E, B,,/B,,/ B,,3 | B,,/B,,/B,, B,,B,, E,/E,/ E,3 | %8
"_2." E,/E,/E, E,B,, B,,/B,,/ B,,2 B,, | B,,B,,B,,B,, E,3 :| %10

